src/images/footer/In_desc.svg

<svg width="36" height="32" viewBox="0 0 36 32" fill="none" xmlns="http://www.w3.org/2000/svg">
<path d="M31.3249 0C32.3478 0 33.3288 0.374602 34.0521 1.0414C34.7754 1.70819 35.1817 2.61256 35.1817 3.55556V28.4444C35.1817 29.3874 34.7754 30.2918 34.0521 30.9586C33.3288 31.6254 32.3478 32 31.3249 32H4.32748C3.3046 32 2.32361 31.6254 1.60033 30.9586C0.877041 30.2918 0.470703 29.3874 0.470703 28.4444V3.55556C0.470703 2.61256 0.877041 1.70819 1.60033 1.0414C2.32361 0.374602 3.3046 0 4.32748 0H31.3249ZM30.3607 27.5556V18.1333C30.3607 16.5963 29.6984 15.1221 28.5194 14.0353C27.3405 12.9484 25.7415 12.3378 24.0742 12.3378C22.435 12.3378 20.5259 13.2622 19.6003 14.6489V12.6756H14.2201V27.5556H19.6003V18.7911C19.6003 17.4222 20.7959 16.3022 22.2808 16.3022C22.9968 16.3022 23.6835 16.5644 24.1898 17.0312C24.6961 17.498 24.9805 18.131 24.9805 18.7911V27.5556H30.3607ZM7.95285 9.88445C8.81207 9.88445 9.6361 9.56978 10.2437 9.00967C10.8512 8.44956 11.1925 7.68989 11.1925 6.89778C11.1925 5.24444 9.74625 3.89333 7.95285 3.89333C7.08852 3.89333 6.25958 4.20987 5.64841 4.77331C5.03723 5.33676 4.69387 6.10095 4.69387 6.89778C4.69387 8.55111 6.15945 9.88445 7.95285 9.88445ZM10.6333 27.5556V12.6756H5.29167V27.5556H10.6333Z" fill="#3A4551"/>
</svg>

<svg width="36" height="32" fill="none" xmlns="http://www.w3.org/2000/svg"><path d="M31.325 0c1.023 0 2.004.375 2.727 1.041.723.667 1.13 1.572 1.13 2.515v24.888c0 .943-.407 1.848-1.13 2.515A4.029 4.029 0 0 1 31.325 32H4.327A4.029 4.029 0 0 1 1.6 30.959C.877 30.292.47 29.387.47 28.444V3.556c0-.943.407-1.848 1.13-2.515A4.029 4.029 0 0 1 4.327 0h26.998Zm-.964 27.556v-9.423c0-1.537-.663-3.01-1.842-4.098-1.178-1.087-2.777-1.697-4.445-1.697-1.639 0-3.548.924-4.474 2.31v-1.972h-5.38v14.88h5.38V18.79c0-1.369 1.196-2.489 2.68-2.489a2.82 2.82 0 0 1 1.91.73c.506.466.79 1.099.79 1.76v8.764h5.38ZM7.953 9.884c.86 0 1.683-.314 2.29-.874.608-.56.95-1.32.95-2.112 0-1.654-1.447-3.005-3.24-3.005-.864 0-1.693.317-2.305.88a2.89 2.89 0 0 0-.954 2.125c0 1.653 1.465 2.986 3.259 2.986Zm2.68 17.672v-14.88H5.292v14.88h5.341Z" fill="#3A4551"/></svg>
